assets/img/braze_icons/check-circle.svg

<svg fill="none" height="24" viewBox="0 0 24 24" width="24" xmlns="http://www.w3.org/2000/svg"><path clip-rule="evenodd" d="m12 1c-6.07513 0-11 4.92487-11 11 0 6.0751 4.92487 11 11 11 6.0751 0 11-4.9249 11-11 0-6.07513-4.9249-11-11-11zm5.2071 8.70711c.3905-.39053.3905-1.02369 0-1.41422-.3905-.39052-1.0237-.39052-1.4142 0l-5.2929 5.29291-2.29289-2.2929c-.39053-.3905-1.02369-.3905-1.41422 0-.39052.3905-.39052 1.0237 0 1.4142l3 3c.39051.3905 1.02371.3905 1.41421 0z" fill="#801ed7" fill-rule="evenodd"/></svg>

<svg width="24" height="24" viewBox="0 0 24 24" fill="none" xmlns="http://www.w3.org/2000/svg">
<path fill-rule="evenodd" clip-rule="evenodd" d="M12 1C5.92487 1 1 5.92487 1 12C1 18.0751 5.92487 23 12 23C18.0751 23 23 18.0751 23 12C23 5.92487 18.0751 1 12 1ZM17.2071 9.70711C17.5976 9.31658 17.5976 8.68342 17.2071 8.29289C16.8166 7.90237 16.1834 7.90237 15.7929 8.29289L10.5 13.5858L8.20711 11.2929C7.81658 10.9024 7.18342 10.9024 6.79289 11.2929C6.40237 11.6834 6.40237 12.3166 6.79289 12.7071L9.79289 15.7071C10.1834 16.0976 10.8166 16.0976 11.2071 15.7071L17.2071 9.70711Z" fill="#801ED7"/>
</svg>
